contributed-vectors/blackberry_work.svg

<?xml version="1.0" encoding="UTF-8" standalone="no"?>
<svg
   xmlns:dc="http://purl.org/dc/elements/1.1/"
   xmlns:cc="http://creativecommons.org/ns#"
   xmlns:rdf="http://www.w3.org/1999/02/22-rdf-syntax-ns#"
   xmlns:svg="http://www.w3.org/2000/svg"
   xmlns="http://www.w3.org/2000/svg"
   xmlns:sodipodi="http://sodipodi.sourceforge.net/DTD/sodipodi-0.dtd"
   xmlns:inkscape="http://www.inkscape.org/namespaces/inkscape"
   width="192"
   height="192"
   viewBox="0 0 192 192"
   fill="none"
   version="1.1"
   id="svg21"
   sodipodi:docname="blackberry_work.svg"
   inkscape:version="1.0.1 (3bc2e813f5, 2020-09-07)">
  <metadata
     id="metadata27">
    <rdf:RDF>
      <cc:Work
         rdf:about="">
        <dc:format>image/svg+xml</dc:format>
        <dc:type
           rdf:resource="http://purl.org/dc/dcmitype/StillImage" />
      </cc:Work>
    </rdf:RDF>
  </metadata>
  <defs
     id="defs25" />
  <sodipodi:namedview
     pagecolor="#ffffff"
     bordercolor="#666666"
     borderopacity="1"
     objecttolerance="10"
     gridtolerance="10"
     guidetolerance="10"
     inkscape:pageopacity="0"
     inkscape:pageshadow="2"
     inkscape:window-width="1884"
     inkscape:window-height="1052"
     id="namedview23"
     showgrid="false"
     inkscape:zoom="3.3697917"
     inkscape:cx="92.616607"
     inkscape:cy="82.854571"
     inkscape:window-x="36"
     inkscape:window-y="0"
     inkscape:window-maximized="1"
     inkscape:current-layer="svg21" />
  <rect
     x="20"
     y="20"
     width="152"
     height="152"
     rx="10"
     fill="#4A4A4A"
     id="rect2"
     style="fill:#56595b;fill-opacity:1" />
  <path
     d="M97.3564 131.5C106.382 131.5 113.708 124.208 113.708 115.2C113.708 106.193 106.382 98.9004 97.3564 98.9004C88.3306 98.9004 81.0049 106.193 81.0049 115.2C81.0049 124.208 88.3306 131.5 97.3564 131.5Z"
     fill="white"
     stroke="#4A4A4A"
     stroke-width="3"
     id="path4"
     style="stroke:#56595b;stroke-opacity:1" />
  <path
     d="M61.7268 105.665C64.5159 114.249 73.7156 118.962 82.2819 116.179C90.8483 113.396 95.5204 104.175 92.7313 95.5908C89.9422 87.0068 80.7425 82.2932 72.1762 85.0766C63.6099 87.8599 58.9377 97.0807 61.7268 105.665Z"
     fill="#9ABEFF"
     stroke="#4A4A4A"
     stroke-width="3"
     id="path6"
     style="stroke:#56595b;stroke-opacity:1" />
  <path
     d="M75.3361 63.862C68.0341 69.1672 66.3941 79.3732 71.6884 86.6602C76.9827 93.9471 87.1959 95.5412 94.4979 90.236C101.8 84.9308 103.44 74.7248 98.1457 67.4378C92.8514 60.1509 82.6381 58.5568 75.3361 63.862Z"
     fill="white"
     stroke="#4A4A4A"
     stroke-width="3"
     id="path8"
     style="stroke:#56595b;stroke-opacity:1" />
  <path
     d="M119.377 63.862C112.075 58.5568 101.862 60.1509 96.5673 67.4379C91.273 74.7248 92.913 84.9308 100.215 90.236C107.517 95.5412 117.73 93.9471 123.025 86.6602C128.319 79.3732 126.679 69.1672 119.377 63.862Z"
     fill="white"
     stroke="#4A4A4A"
     stroke-width="3"
     id="path10"
     style="stroke:#56595b;stroke-opacity:1" />
  <mask
     id="path-6-outside-1"
     maskUnits="userSpaceOnUse"
     x="98.9414"
     y="81.7773"
     width="37"
     height="37"
     fill="black">
    <rect
       fill="white"
       x="98.9414"
       y="81.7773"
       width="37"
       height="37"
       id="rect12" />
    <path
       fill-rule="evenodd"
       clip-rule="evenodd"
       d="M122.073 86.5033C129.847 89.0292 134.094 97.4006 131.56 105.201C129.32 112.095 122.533 116.237 115.619 115.363C115.62 115.309 115.62 115.255 115.62 115.201C115.62 107.09 110.296 100.219 102.941 97.8673C103.058 97.2616 103.213 96.6563 103.408 96.0545C105.943 88.2537 114.3 83.9775 122.073 86.5033Z"
       id="path14" />
  </mask>
  <path
     fill-rule="evenodd"
     clip-rule="evenodd"
     d="M122.073 86.5033C129.847 89.0292 134.094 97.4006 131.56 105.201C129.32 112.095 122.533 116.237 115.619 115.363C115.62 115.309 115.62 115.255 115.62 115.201C115.62 107.09 110.296 100.219 102.941 97.8673C103.058 97.2616 103.213 96.6563 103.408 96.0545C105.943 88.2537 114.3 83.9775 122.073 86.5033Z"
     fill="white"
     id="path17" />
  <path
     d="M131.56 105.201L134.413 106.128L131.56 105.201ZM122.073 86.5033L123.001 83.6502V83.6502L122.073 86.5033ZM115.619 115.363L112.619 115.337L112.596 118.005L115.243 118.339L115.619 115.363ZM102.941 97.8673L99.9952 97.3015L99.4935 99.9145L102.028 100.725L102.941 97.8673ZM103.408 96.0545L106.262 96.9815L103.408 96.0545ZM134.413 106.128C137.456 96.7612 132.359 86.691 123.001 83.6502L121.146 89.3565C127.335 91.3673 130.732 98.0399 128.707 104.274L134.413 106.128ZM115.243 118.339C123.566 119.391 131.722 114.411 134.413 106.128L128.707 104.274C126.918 109.78 121.499 113.082 115.995 112.386L115.243 118.339ZM118.619 115.389C118.62 115.326 118.62 115.264 118.62 115.201H112.62C112.62 115.246 112.62 115.291 112.619 115.337L118.619 115.389ZM118.62 115.201C118.62 105.742 112.411 97.7453 103.855 95.0098L102.028 100.725C108.182 102.692 112.62 108.438 112.62 115.201H118.62ZM100.555 95.1274C100.321 95.8479 100.135 96.5739 99.9952 97.3015L105.888 98.433C105.98 97.9493 106.105 97.4647 106.262 96.9815L100.555 95.1274ZM123.001 83.6502C113.642 80.6093 103.599 85.7602 100.555 95.1274L106.262 96.9815C108.287 90.7471 114.958 87.3457 121.146 89.3565L123.001 83.6502Z"
     fill="#4A4A4A"
     mask="url(#path-6-outside-1)"
     id="path19"
     style="stroke:#56595b;stroke-opacity:1;fill:#56595b;fill-opacity:1" />
</svg>

<svg xmlns="http://www.w3.org/2000/svg" width="192" height="192" fill="none"><rect width="152" height="152" x="20" y="20" fill="#4A4A4A" rx="10" style="fill:#56595b;fill-opacity:1"/><path fill="#fff" stroke="#4A4A4A" stroke-width="3" d="M97.356 131.5c9.026 0 16.352-7.292 16.352-16.3 0-9.007-7.326-16.3-16.352-16.3-9.025 0-16.351 7.293-16.351 16.3 0 9.008 7.326 16.3 16.351 16.3Z" style="stroke:#56595b;stroke-opacity:1"/><path fill="#9ABEFF" stroke="#4A4A4A" stroke-width="3" d="M61.727 105.665c2.789 8.584 11.989 13.297 20.555 10.514 8.566-2.783 13.238-12.004 10.45-20.588-2.79-8.584-11.99-13.298-20.556-10.514-8.566 2.783-13.238 12.004-10.45 20.588Z" style="stroke:#56595b;stroke-opacity:1"/><path fill="#fff" stroke="#4A4A4A" stroke-width="3" d="M75.336 63.862c-7.302 5.305-8.942 15.511-3.648 22.798 5.295 7.287 15.508 8.881 22.81 3.576s8.942-15.511 3.648-22.798c-5.295-7.287-15.508-8.881-22.81-3.576Z" style="stroke:#56595b;stroke-opacity:1"/><path fill="#fff" stroke="#4A4A4A" stroke-width="3" d="M119.377 63.862c-7.302-5.305-17.515-3.711-22.81 3.576-5.294 7.287-3.654 17.493 3.648 22.798s17.515 3.711 22.81-3.576c5.294-7.287 3.654-17.493-3.648-22.798Z" style="stroke:#56595b;stroke-opacity:1"/><mask id="a" width="37" height="37" x="98.941" y="81.777" fill="#000" maskUnits="userSpaceOnUse"><path fill="#fff" d="M98.941 81.777h37v37h-37z"/><path fill-rule="evenodd" d="M122.073 86.503c7.774 2.526 12.021 10.898 9.487 18.698-2.24 6.894-9.027 11.036-15.941 10.162l.001-.162c0-8.111-5.324-14.982-12.679-17.334.117-.605.272-1.21.467-1.813 2.535-7.8 10.892-12.076 18.665-9.55Z" clip-rule="evenodd"/></mask><path fill="#fff" fill-rule="evenodd" d="M122.073 86.503c7.774 2.526 12.021 10.898 9.487 18.698-2.24 6.894-9.027 11.036-15.941 10.162l.001-.162c0-8.111-5.324-14.982-12.679-17.334.117-.605.272-1.21.467-1.813 2.535-7.8 10.892-12.076 18.665-9.55Z" clip-rule="evenodd"/><path fill="#4A4A4A" d="m131.56 105.201 2.853.927-2.853-.927Zm-9.487-18.698.928-2.853-.928 2.853Zm-6.454 28.86-3-.026-.023 2.668 2.647.334.376-2.976Zm-12.678-17.496-2.946-.566-.502 2.614 2.535.81.913-2.858Zm.467-1.813 2.854.927-2.854-.926Zm31.005 10.074c3.043-9.367-2.054-19.437-11.412-22.478l-1.855 5.706c6.189 2.011 9.586 8.684 7.561 14.918l5.706 1.854Zm-19.17 12.211c8.323 1.052 16.479-3.928 19.17-12.211l-5.706-1.854c-1.789 5.506-7.208 8.808-12.712 8.112l-.752 5.953Zm3.376-2.95.001-.188h-6l-.001.136 6 .052Zm.001-.188c0-9.459-6.209-17.456-14.765-20.191l-1.827 5.715c6.154 1.967 10.592 7.713 10.592 14.476h6Zm-18.065-20.074c-.234.72-.42 1.447-.56 2.175l5.893 1.131c.092-.484.217-.968.374-1.452l-5.707-1.854Zm22.446-11.477c-9.359-3.04-19.402 2.11-22.446 11.477l5.707 1.855c2.025-6.235 8.696-9.636 14.884-7.626l1.855-5.706Z" mask="url(#a)" style="stroke:#56595b;stroke-opacity:1;fill:#56595b;fill-opacity:1"/></svg>
